src/next/sw/res/sidebar/pageproppanel/column2_24x24.svg

<svg height="24" viewBox="0 0 6.3499999 6.3500002" width="24" xmlns="http://www.w3.org/2000/svg" xmlns:xlink="http://www.w3.org/1999/xlink"><linearGradient id="a" gradientTransform="matrix(.02565158 0 0 .055299 -294.37533 -30.388306)" gradientUnits="userSpaceOnUse" x1="399.77466" x2="399.77466" y1="1164.6696" y2="549.06134"><stop offset="0" stop-color="#b4b4b6"/><stop offset=".5" stop-color="#9c9ca1"/><stop offset="1" stop-color="#cdcdd1"/></linearGradient><linearGradient id="b" gradientTransform="matrix(.21887413 0 0 .41157411 266.13654 -43.274297)" gradientUnits="userSpaceOnUse" x1="173.2455" x2="-102.13699" y1="70.857895" y2="70.857895"><stop offset="0" stop-color="#fff"/><stop offset=".42597079" stop-color="#fff"/><stop offset=".5892781" stop-color="#f1f1f1"/><stop offset=".80219781" stop-color="#eaeaea"/><stop offset="1" stop-color="#dfdfdf"/></linearGradient><g transform="matrix(.1875 0 0 .1875 0 -49.3374975)"><rect fill="url(#a)" height="31.04425" rx=".755952" ry=".732692" transform="rotate(-90)" width="23.988752" x="-292.76669" y="1.411102"/><rect fill="url(#b)" fill-rule="evenodd" height="28.222046" rx=".463021" transform="rotate(90)" width="21.166548" x="270.18906" y="-31.04425"/><g fill="#2e3436" fill-opacity=".580882"><path d="m16.933228 273.01126h12.699921v1.4111h-12.699921z"/><path d="m16.933228 275.83347h12.699921v1.4111h-12.699921z"/><path d="m16.933228 278.65567h12.699921v1.4111h-12.699921z"/><path d="m16.933228 281.47787h12.699921v1.4111h-12.699921z"/><path d="m16.933228 284.30008h12.699921v1.4111h-12.699921z"/><path d="m16.933228 287.12228h12.699921v1.4111h-12.699921z"/><path d="m4.233307 273.01126h11.288818v1.4111h-11.288818z"/><path d="m4.233307 275.83347h11.288818v1.4111h-11.288818z"/><path d="m4.233307 278.65567h11.288818v1.4111h-11.288818z"/><path d="m4.233307 281.47787h11.288818v1.4111h-11.288818z"/><path d="m4.233307 284.30008h11.288818v1.4111h-11.288818z"/><path d="m4.233307 287.12228h11.288818v1.4111h-11.288818z"/></g></g></svg>

<?xml version="1.0" encoding="UTF-8" standalone="no"?>
<svg
   xmlns:dc="http://purl.org/dc/elements/1.1/"
   xmlns:cc="http://creativecommons.org/ns#"
   xmlns:rdf="http://www.w3.org/1999/02/22-rdf-syntax-ns#"
   xmlns:svg="http://www.w3.org/2000/svg"
   xmlns="http://www.w3.org/2000/svg"
   xmlns:sodipodi="http://sodipodi.sourceforge.net/DTD/sodipodi-0.dtd"
   xmlns:inkscape="http://www.inkscape.org/namespaces/inkscape"
   height="24"
   viewBox="0 0 6.3499999 6.3500002"
   width="24"
   version="1.1"
   id="svg52"
   sodipodi:docname="column2_24x24.svg"
   inkscape:version="0.92.4 (unknown)">
  <metadata
     id="metadata58">
    <rdf:RDF>
      <cc:Work
         rdf:about="">
        <dc:format>image/svg+xml</dc:format>
        <dc:type
           rdf:resource="http://purl.org/dc/dcmitype/StillImage" />
        <dc:title></dc:title>
      </cc:Work>
    </rdf:RDF>
  </metadata>
  <defs
     id="defs56" />
  <sodipodi:namedview
     pagecolor="#ffffff"
     bordercolor="#666666"
     borderopacity="1"
     objecttolerance="10"
     gridtolerance="10"
     guidetolerance="10"
     inkscape:pageopacity="0"
     inkscape:pageshadow="2"
     inkscape:window-width="640"
     inkscape:window-height="480"
     id="namedview54"
     showgrid="true"
     inkscape:zoom="21.036427"
     inkscape:cx="9.4582415"
     inkscape:cy="17.050372"
     inkscape:current-layer="g4821">
    <inkscape:grid
       type="xygrid"
       id="grid4800" />
  </sodipodi:namedview>
  <linearGradient
     id="a"
     gradientTransform="matrix(0.02565158,0,0,0.055299,-294.37533,-30.388306)"
     gradientUnits="userSpaceOnUse"
     x1="399.77466"
     x2="399.77466"
     y1="1164.6696"
     y2="549.06134">
    <stop
       offset="0"
       stop-color="#b4b4b6"
       id="stop2" />
    <stop
       offset=".5"
       stop-color="#9c9ca1"
       id="stop4" />
    <stop
       offset="1"
       stop-color="#cdcdd1"
       id="stop6" />
  </linearGradient>
  <linearGradient
     id="b"
     gradientTransform="matrix(0.21887413,0,0,0.41157411,266.13654,-43.274297)"
     gradientUnits="userSpaceOnUse"
     x1="173.2455"
     x2="-102.13699"
     y1="70.857895"
     y2="70.857895">
    <stop
       offset="0"
       stop-color="#fff"
       id="stop9" />
    <stop
       offset=".42597079"
       stop-color="#fff"
       id="stop11" />
    <stop
       offset=".5892781"
       stop-color="#f1f1f1"
       id="stop13" />
    <stop
       offset=".80219781"
       stop-color="#eaeaea"
       id="stop15" />
    <stop
       offset="1"
       stop-color="#dfdfdf"
       id="stop17" />
  </linearGradient>
  <g
     id="g4821"
     transform="scale(0.1875)">
    <g
       id="g50"
       transform="translate(0,-263.13332)">
      <rect
         id="rect20"
         y="1.4111021"
         x="-292.76669"
         width="23.988752"
         transform="rotate(-90)"
         ry="0.732692"
         rx="0.755952"
         height="31.04425"
         style="fill:url(#a)" />
      <rect
         id="rect22"
         y="-31.04425"
         x="270.18906"
         width="21.166548"
         transform="rotate(90)"
         rx="0.46302101"
         height="28.222046"
         style="fill:url(#b);fill-rule:evenodd" />
      <g
         id="g48"
         style="fill:#2e3436;fill-opacity:0.58088199">
        <path
           id="path24"
           d="m 16.933228,273.01126 h 12.699921 v 1.4111 H 16.933228 Z"
           inkscape:connector-curvature="0" />
        <path
           id="path26"
           d="m 16.933228,275.83347 h 12.699921 v 1.4111 H 16.933228 Z"
           inkscape:connector-curvature="0" />
        <path
           id="path28"
           d="m 16.933228,278.65567 h 12.699921 v 1.4111 H 16.933228 Z"
           inkscape:connector-curvature="0" />
        <path
           id="path30"
           d="m 16.933228,281.47787 h 12.699921 v 1.4111 H 16.933228 Z"
           inkscape:connector-curvature="0" />
        <path
           id="path32"
           d="m 16.933228,284.30008 h 12.699921 v 1.4111 H 16.933228 Z"
           inkscape:connector-curvature="0" />
        <path
           id="path34"
           d="m 16.933228,287.12228 h 12.699921 v 1.4111 H 16.933228 Z"
           inkscape:connector-curvature="0" />
        <path
           id="path36"
           d="m 4.233307,273.01126 h 11.288818 v 1.4111 H 4.233307 Z"
           inkscape:connector-curvature="0" />
        <path
           id="path38"
           d="m 4.233307,275.83347 h 11.288818 v 1.4111 H 4.233307 Z"
           inkscape:connector-curvature="0" />
        <path
           id="path40"
           d="m 4.233307,278.65567 h 11.288818 v 1.4111 H 4.233307 Z"
           inkscape:connector-curvature="0" />
        <path
           id="path42"
           d="m 4.233307,281.47787 h 11.288818 v 1.4111 H 4.233307 Z"
           inkscape:connector-curvature="0" />
        <path
           id="path44"
           d="m 4.233307,284.30008 h 11.288818 v 1.4111 H 4.233307 Z"
           inkscape:connector-curvature="0" />
        <path
           id="path46"
           d="m 4.233307,287.12228 h 11.288818 v 1.4111 H 4.233307 Z"
           inkscape:connector-curvature="0" />
      </g>
    </g>
  </g>
</svg>
